src/assets/svg/ic_phone_chat_media.svg

<svg xmlns="http://www.w3.org/2000/svg" width="16" height="16">
    <path d="M15.793 9.124l-1.821-1.822c-.253-.249-.671-.239-.934.022l-.257.257-.364.358c-.704.704-1.817.729-2.489.059l-.304-.303-1.517-1.517c-.672-.672-.645-1.785.059-2.49l.206-.2.157-.155.258-.26c.262-.263.271-.681.02-.933L6.984.317c-.25-.25-.668-.241-.932.022l-.41.462c-.479.478-.816 1.102-.902 1.642-.215 1.339.572 3.906 2.812 6.145a.053.053 0 00.012.01.052.052 0 00.01.011c2.24 2.241 4.807 3.027 6.145 2.812.54-.085 1.164-.423 1.643-.9l.411-.463c.261-.263.271-.682.02-.934zm-9.184.516l-.072-.087A12.953 12.953 0 014.588 7H1a1 1 0 00-1 1v5a1 1 0 001 1h2v2l2-2h4a1 1 0 001-1v-.967c-1.078-.505-2.228-1.265-3.334-2.353l-.057-.04z"/>
</svg>

<?xml version="1.0" encoding="utf-8"?>
<!-- Generator: Adobe Illustrator 16.0.4, SVG Export Plug-In . SVG Version: 6.00 Build 0)  -->
<!DOCTYPE svg PUBLIC "-//W3C//DTD SVG 1.1//EN" "http://www.w3.org/Graphics/SVG/1.1/DTD/svg11.dtd">
<svg version="1.1" id="artwork" xmlns="http://www.w3.org/2000/svg" xmlns:xlink="http://www.w3.org/1999/xlink" x="0px" y="0px"
	 width="16px" height="16px" viewBox="0 0 16 16" enable-background="new 0 0 16 16" xml:space="preserve">
<path d="M15.793,9.124l-1.821-1.822c-0.253-0.249-0.671-0.239-0.934,0.022l-0.257,0.257l-0.364,0.358
	C11.713,8.643,10.6,8.668,9.928,7.998L9.624,7.695L8.107,6.178c-0.672-0.672-0.645-1.785,0.059-2.49l0.206-0.2l0.157-0.155
	l0.258-0.26C9.049,2.81,9.058,2.392,8.807,2.14L6.984,0.317c-0.25-0.25-0.668-0.241-0.932,0.022l-0.41,0.462
	C5.163,1.279,4.826,1.903,4.74,2.443C4.525,3.782,5.312,6.349,7.552,8.588c0.003,0.004,0.009,0.008,0.012,0.01
	C7.567,8.602,7.57,8.606,7.574,8.609c2.24,2.241,4.807,3.027,6.145,2.812c0.54-0.085,1.164-0.423,1.643-0.9l0.411-0.463
	C16.034,9.795,16.044,9.376,15.793,9.124z"/>
<g>
	<path d="M6.609,9.64L6.537,9.553C5.84,8.851,5.15,7.964,4.588,7H1C0.447,7,0,7.447,0,8v5c0,0.553,0.447,1,1,1h2v2
		l2-2h4c0.553,0,1-0.447,1-1v-0.967c-1.078-0.505-2.228-1.265-3.334-2.353L6.609,9.64z"/>
</g>
</svg>
